!!!OTL: 160. Skotshne
!!!Genre:	Skotshne
!!!Mode:	Major
!!!Listening/dance:	dance
!!!One_Mode:	no
**kern
*I"P1
*clefG2
*k[f#]
*G:
*M2/4
*>A
!LO:TX:a:i:t=G-major
=1
(8qd/
8gL)
8aJ
4b
=2
8aL
8bJ
4a
=3
(8qd/
8gL)
8aJ
4b
=4
8aL
8bJ
4a
=5
8gL
8a
8b
8ccJ
=6
8ddL
8b
8cc
8aJ
=7
8bL
8g
8a
8f#J
*>A1
=8
8ddL
8ddJ
4b
*>A2
=9:|!
4.g
8r
=10!|:
*>bM
*D:
*>B
!LO:TX:a:i:t=D-major
8a
8r
4a
=11
(16aLL
16g
16f#)
16eJJ
8f#L
8dJ
=12
(16f#LL
16gJ)
8aJ
(16f#LL
16gJ)
8aJ
=13
16aLL
16g
16f#
16eJJ
8f#L
8dJ
=14
16f#LL
16gJJ
4a
8a
=15
16gLL
16aJJ
4b
16aLL
16gJJ
=16
8f#L
8f#J
16eLL
16f#
16g
16eJJ
*>B1
=17
16dLL
16e
16f#
16gJJ
16aLL
16b
16cc
16ddJJ
*>B2
=18:|!
4.d
8r
*>eM
*G:
=19!|:
*>C
!LO:TX:a:i:t=G-major
2dd
=20
2dd
=21
8ddL
8bJ
8ccL
8ccJ
=22
2b
=23
8bL
8gJ
8aL
8aJ
=24
2g
=25
8gL
8dJ
8eL
8eJ
=26
2d
=27
8dL
8e
8f#
8gJ
*>C1
=28
8aL
8bJ
12ccL
12b
12aJ
=29
2b
=30
2dd
*>C2
=31:|!
8aL
8b
8cc
8aJ
=32
2a
=33
4g
4r
==
*-
